icons/Default/scalable/gimp-visible-symbolic.svg

<?xml version="1.0" encoding="UTF-8" standalone="no"?>
<!-- Created with Inkscape (http://www.inkscape.org/) -->

<svg
   xmlns:dc="http://purl.org/dc/elements/1.1/"
   xmlns:cc="http://creativecommons.org/ns#"
   xmlns:rdf="http://www.w3.org/1999/02/22-rdf-syntax-ns#"
   xmlns:svg="http://www.w3.org/2000/svg"
   xmlns="http://www.w3.org/2000/svg"
   xmlns:sodipodi="http://sodipodi.sourceforge.net/DTD/sodipodi-0.dtd"
   xmlns:inkscape="http://www.inkscape.org/namespaces/inkscape"
   width="16"
   height="16"
   viewBox="0 0 4.2333332 4.2333335"
   version="1.1"
   id="svg8"
   inkscape:version="0.92.4 (5da689c313, 2019-01-14)"
   sodipodi:docname="gimp-visible-symbolic.svg">
  <defs
     id="defs2" />
  <sodipodi:namedview
     id="base"
     pagecolor="#ffffff"
     bordercolor="#666666"
     borderopacity="1.0"
     inkscape:pageopacity="0.0"
     inkscape:pageshadow="2"
     inkscape:zoom="50.3125"
     inkscape:cx="8"
     inkscape:cy="8"
     inkscape:document-units="px"
     inkscape:current-layer="layer4"
     showgrid="false"
     units="in"
     showborder="true"
     inkscape:window-width="1920"
     inkscape:window-height="1008"
     inkscape:window-x="0"
     inkscape:window-y="35"
     inkscape:window-maximized="1">
    <inkscape:grid
       type="xygrid"
       id="grid815"
       empspacing="4" />
  </sodipodi:namedview>
  <metadata
     id="metadata5">
    <rdf:RDF>
      <cc:Work
         rdf:about="">
        <dc:format>image/svg+xml</dc:format>
        <dc:type
           rdf:resource="http://purl.org/dc/dcmitype/StillImage" />
        <dc:title />
      </cc:Work>
    </rdf:RDF>
  </metadata>
  <g
     inkscape:groupmode="layer"
     id="layer4"
     inkscape:label="Layer 1"
     style="display:inline">
    <g
       id="g1396">
      <path
         style="color:#000000;font-style:normal;font-variant:normal;font-weight:normal;font-stretch:normal;font-size:medium;line-height:normal;font-family:sans-serif;font-variant-ligatures:normal;font-variant-position:normal;font-variant-caps:normal;font-variant-numeric:normal;font-variant-alternates:normal;font-feature-settings:normal;text-indent:0;text-align:start;text-decoration:none;text-decoration-line:none;text-decoration-style:solid;text-decoration-color:#000000;letter-spacing:normal;word-spacing:normal;text-transform:none;writing-mode:lr-tb;direction:ltr;text-orientation:mixed;dominant-baseline:auto;baseline-shift:baseline;text-anchor:start;white-space:normal;shape-padding:0;clip-rule:nonzero;display:inline;overflow:visible;visibility:visible;opacity:1;isolation:auto;mix-blend-mode:normal;color-interpolation:sRGB;color-interpolation-filters:linearRGB;solid-color:#000000;solid-opacity:1;vector-effect:none;fill:#bebebe;fill-opacity:1;fill-rule:nonzero;stroke:none;stroke-width:0.32521036;stroke-linecap:round;stroke-linejoin:miter;stroke-miterlimit:4;stroke-dasharray:none;stroke-dashoffset:0;stroke-opacity:1;color-rendering:auto;image-rendering:auto;shape-rendering:auto;text-rendering:auto;enable-background:accumulate"
         d="m 2.1171961,0.91088973 c -0.7367311,0 -1.45048247,0.46772247 -1.95263864,1.32857767 -0.0541743,0.093105 -0.0267774,0.1984652 0.0418158,0.2651863 A 0.2710358,0.2710358 0 0 1 0.24871836,2.3373905 C 0.72282381,1.5246231 1.4057457,1.0707425 2.1171961,1.0707425 c 0.7114503,0 1.3943724,0.4538806 1.8684776,1.266648 a 0.2710358,0.2710358 0 0 1 0.041816,0.1746736 C 4.0995445,2.4457514 4.1254912,2.3347129 4.0698347,2.2394674 3.5676786,1.378613 2.8539272,0.91088897 2.1171961,0.91088973 Z M 1.8864153,1.6371083 c -0.098326,0.019683 -0.1970315,0.050797 -0.2948278,0.096864 A 0.29810954,0.29810954 0 0 0 1.5206594,1.9245257 0.29810954,0.29810954 0 0 0 1.8144286,2.225176 0.29810954,0.29810954 0 0 0 2.1166668,1.9319361 L 1.8186631,1.9271723 H 2.1166668 A 0.29810954,0.29810954 0 0 0 1.8864153,1.6371083 Z m 1.0977968,0.3197056 c 0.00615,0.042 0.012701,0.083857 0.012704,0.1275646 C 2.9968886,2.5705152 2.6028036,2.9646002 2.1166668,2.9646273 1.63053,2.9646002 1.236445,2.5705152 1.2364179,2.0843785 c 2.4e-6,-0.043528 0.0066,-0.0852 0.012703,-0.1270353 -0.18854,0.1584611 -0.36920697,0.3721971 -0.53248913,0.6521146 A 0.2710358,0.2710358 0 0 1 0.53560644,2.7486673 C 1.4580301,3.509987 2.7749417,3.5097845 3.6971977,2.748138 A 0.2710358,0.2710358 0 0 1 3.5177605,2.6094578 C 3.3542168,2.3290918 3.1730813,2.1153437 2.9842121,1.9568139 Z"
         id="path817-3-9"
         inkscape:connector-curvature="0" />
      <g
         id="g5000">
        <path
           inkscape:connector-curvature="0"
           id="path817-3-9-1"
           d="m 2.1171875,0.91015625 c -0.7367311,0 -1.45096884,0.46922275 -1.953125,1.33007815 A 0.22009301,0.22009301 0 1 0 0.54492188,2.4609375 C 0.9919259,1.6946305 1.5657728,1.3496094 2.1171875,1.3496094 c 0.5514147,0 1.1252617,0.3450211 1.5722656,1.1113281 A 0.22009301,0.22009301 0 1 0 4.0703125,2.2402344 C 3.5681565,1.379379 2.8539186,0.91015625 2.1171875,0.91015625 Z"
           style="color:#000000;font-style:normal;font-variant:normal;font-weight:normal;font-stretch:normal;font-size:medium;line-height:normal;font-family:sans-serif;font-variant-ligatures:normal;font-variant-position:normal;font-variant-caps:normal;font-variant-numeric:normal;font-variant-alternates:normal;font-feature-settings:normal;text-indent:0;text-align:start;text-decoration:none;text-decoration-line:none;text-decoration-style:solid;text-decoration-color:#000000;letter-spacing:normal;word-spacing:normal;text-transform:none;writing-mode:lr-tb;direction:ltr;text-orientation:mixed;dominant-baseline:auto;baseline-shift:baseline;text-anchor:start;white-space:normal;shape-padding:0;clip-rule:nonzero;display:inline;overflow:visible;visibility:visible;opacity:1;isolation:auto;mix-blend-mode:normal;color-interpolation:sRGB;color-interpolation-filters:linearRGB;solid-color:#000000;solid-opacity:1;vector-effect:none;fill:#bebebe;fill-opacity:1;fill-rule:nonzero;stroke:none;stroke-width:0.44011807;stroke-linecap:round;stroke-linejoin:miter;stroke-miterlimit:4;stroke-dasharray:none;stroke-dashoffset:0;stroke-opacity:1;color-rendering:auto;image-rendering:auto;shape-rendering:auto;text-rendering:auto;enable-background:accumulate" />
        <path
           inkscape:connector-curvature="0"
           id="path817-3-9-9"
           d="M 0.34765625,2.1855469 A 0.16262146,0.16262146 0 0 0 0.23242188,2.4570312 c 1.00980532,1.1540595 2.75972602,1.1540595 3.76953122,0 A 0.16262146,0.16262146 0 1 0 3.7578125,2.2441406 c -0.888515,1.0154426 -2.3927349,1.0154426 -3.28125,0 A 0.16262146,0.16262146 0 0 0 0.34765625,2.1855469 Z"
           style="color:#000000;font-style:normal;font-variant:normal;font-weight:normal;font-stretch:normal;font-size:medium;line-height:normal;font-family:sans-serif;font-variant-ligatures:normal;font-variant-position:normal;font-variant-caps:normal;font-variant-numeric:normal;font-variant-alternates:normal;font-feature-settings:normal;text-indent:0;text-align:start;text-decoration:none;text-decoration-line:none;text-decoration-style:solid;text-decoration-color:#000000;letter-spacing:normal;word-spacing:normal;text-transform:none;writing-mode:lr-tb;direction:ltr;text-orientation:mixed;dominant-baseline:auto;baseline-shift:baseline;text-anchor:start;white-space:normal;shape-padding:0;clip-rule:nonzero;display:inline;overflow:visible;visibility:visible;opacity:1;isolation:auto;mix-blend-mode:normal;color-interpolation:sRGB;color-interpolation-filters:linearRGB;solid-color:#000000;solid-opacity:1;vector-effect:none;fill:#bebebe;fill-opacity:1;fill-rule:nonzero;stroke:none;stroke-width:0.32521039;stroke-linecap:round;stroke-linejoin:miter;stroke-miterlimit:4;stroke-dasharray:none;stroke-dashoffset:0;stroke-opacity:1;color-rendering:auto;image-rendering:auto;shape-rendering:auto;text-rendering:auto;enable-background:accumulate" />
      </g>
    </g>
  </g>
</svg>

<svg xmlns="http://www.w3.org/2000/svg" width="16" height="16" viewBox="0 0 4.233333 4.233333">
  <g style="display:inline">
    <path d="M2.117196.91089c-.736731 0-1.450482.467722-1.952639 1.328577-.054174.093105-.026777.198466.041816.265187a.27104.27104 0 0 1 .042345-.167263c.474106-.812768 1.157028-1.266649 1.868478-1.266649s1.394373.453881 1.868478 1.266648a.27104.27104 0 0 1 .041816.174674c.072055-.066313.098001-.177351.042345-.272597C3.567679 1.378613 2.853927.91089 2.117196.91089m-.23078.726218c-.098327.019683-.197032.050797-.294829.096864a.2981.2981 0 0 0-.070928.190554.29811.29811 0 0 0 .29377.30065.29811.29811 0 0 0 .302238-.29324l-.298004-.004764h.298004a.29811.29811 0 0 0-.230252-.290064m1.097796.319706c.00615.042.012701.083857.012704.127564-.000027.486137-.394112.880222-.88025.88025-.486136-.000028-.880221-.394113-.880248-.88025.000002-.043527.0066-.0852.012703-.127035-.18854.158461-.369207.372197-.53249.652115a.27104.27104 0 0 1-.181025.13921c.922424.761319 2.239336.761117 3.161592-.00053a.27104.27104 0 0 1-.179438-.13868c-.163543-.280366-.344679-.494114-.533548-.652644" style="color:#000;font-style:normal;font-variant:normal;font-weight:400;font-stretch:normal;font-size:medium;line-height:normal;font-family:sans-serif;font-variant-ligatures:normal;font-variant-position:normal;font-variant-caps:normal;font-variant-numeric:normal;font-variant-alternates:normal;font-feature-settings:normal;text-indent:0;text-align:start;text-decoration:none;text-decoration-line:none;text-decoration-style:solid;text-decoration-color:#000;letter-spacing:normal;word-spacing:normal;text-transform:none;writing-mode:lr-tb;direction:ltr;text-orientation:mixed;dominant-baseline:auto;baseline-shift:baseline;text-anchor:start;white-space:normal;shape-padding:0;clip-rule:nonzero;display:inline;overflow:visible;visibility:visible;opacity:1;isolation:auto;mix-blend-mode:normal;color-interpolation:sRGB;color-interpolation-filters:linearRGB;solid-color:#000;solid-opacity:1;vector-effect:none;fill:#bebebe;fill-opacity:1;fill-rule:nonzero;stroke:none;stroke-width:.32521036;stroke-linecap:round;stroke-linejoin:miter;stroke-miterlimit:4;stroke-dasharray:none;stroke-dashoffset:0;stroke-opacity:1;color-rendering:auto;image-rendering:auto;shape-rendering:auto;text-rendering:auto"/>
    <path d="M2.117188.910156c-.736732 0-1.45097.469223-1.953125 1.330078a.220093.220093 0 1 0 .380859.220703c.447004-.766306 1.02085-1.111328 1.572265-1.111328s1.125262.345022 1.572266 1.111329a.220093.220093 0 1 0 .38086-.220704C3.568156 1.37938 2.853919.910156 2.117188.910156" style="color:#000;font-style:normal;font-variant:normal;font-weight:400;font-stretch:normal;font-size:medium;line-height:normal;font-family:sans-serif;font-variant-ligatures:normal;font-variant-position:normal;font-variant-caps:normal;font-variant-numeric:normal;font-variant-alternates:normal;font-feature-settings:normal;text-indent:0;text-align:start;text-decoration:none;text-decoration-line:none;text-decoration-style:solid;text-decoration-color:#000;letter-spacing:normal;word-spacing:normal;text-transform:none;writing-mode:lr-tb;direction:ltr;text-orientation:mixed;dominant-baseline:auto;baseline-shift:baseline;text-anchor:start;white-space:normal;shape-padding:0;clip-rule:nonzero;display:inline;overflow:visible;visibility:visible;opacity:1;isolation:auto;mix-blend-mode:normal;color-interpolation:sRGB;color-interpolation-filters:linearRGB;solid-color:#000;solid-opacity:1;vector-effect:none;fill:#bebebe;fill-opacity:1;fill-rule:nonzero;stroke:none;stroke-width:.44011807;stroke-linecap:round;stroke-linejoin:miter;stroke-miterlimit:4;stroke-dasharray:none;stroke-dashoffset:0;stroke-opacity:1;color-rendering:auto;image-rendering:auto;shape-rendering:auto;text-rendering:auto"/>
    <path d="M.347656 2.185547a.162621.162621 0 0 0-.115234.271484c1.009805 1.15406 2.759726 1.15406 3.769531 0a.162621.162621 0 1 0-.24414-.21289c-.888516 1.015442-2.392735 1.015442-3.28125 0a.16262.16262 0 0 0-.128907-.058594" style="color:#000;font-style:normal;font-variant:normal;font-weight:400;font-stretch:normal;font-size:medium;line-height:normal;font-family:sans-serif;font-variant-ligatures:normal;font-variant-position:normal;font-variant-caps:normal;font-variant-numeric:normal;font-variant-alternates:normal;font-feature-settings:normal;text-indent:0;text-align:start;text-decoration:none;text-decoration-line:none;text-decoration-style:solid;text-decoration-color:#000;letter-spacing:normal;word-spacing:normal;text-transform:none;writing-mode:lr-tb;direction:ltr;text-orientation:mixed;dominant-baseline:auto;baseline-shift:baseline;text-anchor:start;white-space:normal;shape-padding:0;clip-rule:nonzero;display:inline;overflow:visible;visibility:visible;opacity:1;isolation:auto;mix-blend-mode:normal;color-interpolation:sRGB;color-interpolation-filters:linearRGB;solid-color:#000;solid-opacity:1;vector-effect:none;fill:#bebebe;fill-opacity:1;fill-rule:nonzero;stroke:none;stroke-width:.32521039;stroke-linecap:round;stroke-linejoin:miter;stroke-miterlimit:4;stroke-dasharray:none;stroke-dashoffset:0;stroke-opacity:1;color-rendering:auto;image-rendering:auto;shape-rendering:auto;text-rendering:auto"/>
  </g>
</svg>
